source/img/icon-facebook.svg

<svg width="9" height="17" viewBox="0 0 9 17" fill="none" xmlns="http://www.w3.org/2000/svg">
<path d="M6.62377 0C4.27168 0 2.66088 1.40792 2.66088 3.99443V6.22354H0V9.24668H2.66088V17H5.84158V9.24668H8.49505L8.89357 6.22354H5.84158V4.2931C5.84158 3.41809 6.08977 2.8216 7.36882 2.8216H9V0.118982C8.71786 0.0821513 7.75042 0 6.62377 0Z" fill="#5C5C50"/>
</svg>

<svg width="9" height="17" fill="none" xmlns="http://www.w3.org/2000/svg"><path d="M6.624 0C4.272 0 2.66 1.408 2.66 3.994v2.23H0v3.023h2.66V17h3.182V9.247h2.653l.399-3.023H5.842v-1.93c0-.876.248-1.472 1.527-1.472H9V.119A22.215 22.215 0 006.624 0z" fill="#5C5C50"/></svg>
